X: 1317
T: An Mhallaidh Gharbh
R: strathspey
M: 4/4
K: Adorian
|:E>GA>B c2 B>A|G>Bd>c B<GF>G|E>GA>B c>Bc>d|(3efg d>g B<AA>G:|
A<aa>g a2 g>e|d<Bg>d B>AG>B|A<aa>g a2 g>e|d<Bg>d B<AA>B|
A<aa>g a2 g>e|d<Bg>d B>AG>B|A<EA>B c>Bc>d|(3efg d>g B<AA>G||

